X:1
T:Howcroft, 88.86
T:Howcroft, 88.86
T:G. Trotter (1866-?)
T:Public Domain Courtesy of the Cyber Hymnal™
C:G. Trotter (1866-?)
Z:Public Domain
Z:Courtesy of the Cyber Hymnal™
%%score ( 1 2 ) ( 3 4 )
L:1/8
Q:1/4=128
M:3/4
K:Eb
V:1 treble 
V:2 treble 
V:3 bass 
V:4 bass 
V:1
 [EG]2 [E^F]2 [EG]2 | [EA]4 [EG]2 | ([DF]2 E2) [DF]2 | [EG]6 | [GB]2 [Gc]2 [Gd]2 | [Ge]4 [EG]2 | %6
 (B2 A2) [EG]2 | [DF]6 | [FB]2 [Fc]2 [FB]2 | [EB]4 E2 | (A2 B2) [DA]2 | [_DG]6 | %12
 [CF]2 [CF]2 [FA]2 | G4 [DF]2 | E6 |] %15
V:2
 x6 | x6 | x2 E2 x2 | x6 | x6 | x6 | E4 x2 | x6 | x6 | x4 E2 | D4 x2 | x6 | x6 | (E2 D2) x2 | E6 |] %15
V:3
 [E,B,]2 [E,=A,]2 [E,B,]2 | [E,C]4 [E,B,]2 | (A,2 G,2) [B,,A,]2 | (G,4 B,2) | %4
 [E,E]2 [E,E]2 [D,F]2 | [C,E]4 [C,C]2 | [F,C]4 [F,=A,]2 | B,6 | [A,D]2 [A,D]2 [A,D]2 | %9
 [G,E]4 [G,B,]2 | [F,B,]4 [F,B,]2 | [E,B,]6 | [A,,A,]2 [A,,A,]2 [F,,C]2 | [B,,B,]4 [B,,A,]2 | %14
 [E,G,]6 |] %15
V:4
 x6 | x6 | B,,4 x2 | E,6 | x6 | x6 | x6 | B,6 | x6 | x6 | x6 | x6 | x6 | x6 | x6 |] %15

